X: 15251
T: Girl Of The House, The
R: jig
M: 6/8
K: Dmixolydian
|:~F2D DAG|~A3 GEA|DED FED|GEA DAG|
~F3 ~G3|~A3 cde|dcA GEA|~D3 DAG:|
|:c2A AGF|~G3 DGG|Add cAG|Ad^d =d2e|
fed cAG|FAF GEA|dcA GEA|~D3 D2B:|

